X: 0
T: G\"ostas Vals
C: Trad
O: G\"otland, Sweden
M: 3/4
L:1/8
K:Edor
|: "Em" EF GB de | "A" cB AB cA | "Em" BG EF GE | "D" AF DE FD |
 "Em" EF GB de | "A" cB AB cA | "Em" BG EG "D" FD | "Em" E6 :|
|: "G" "(Bm)" dc Bc de | "A" cB Ae dc | "Bm" "(G)" BA Bc de | "D/F#" "(F#m)" f3 e dc | 
 "Bm" "(G)" BF Bc de | "A" cB Ae dc | "Bm" "(G)" fd Bd "A"cA | "Bm" B6 :|